assets/icons/folder_icons/folder-models-open.svg

<?xml version="1.0" encoding="UTF-8"?><svg id="Layer_23_copy_4" xmlns="http://www.w3.org/2000/svg" xmlns:xlink="http://www.w3.org/1999/xlink" viewBox="0 0 14 14"><defs><style>.cls-1{fill:#fff;}.cls-2{opacity:.3;}.cls-2,.cls-3{isolation:isolate;}.cls-4{fill:#ff2020;}.cls-5{fill:url(#linear-gradient);}.cls-3{fill:url(#radial-gradient);opacity:.711;}</style><radialGradient id="radial-gradient" cx="152.7111" cy="-176.4241" fx="152.7111" fy="-176.4241" r="1.5875" gradientTransform="translate(-298.3384 -680.1417) rotate(33.6901) scale(4.1287 -2.2712)" gradientUnits="userSpaceOnUse"><stop offset="0" stop-color="#000"/><stop offset="1" stop-color="#000" stop-opacity="0"/></radialGradient><linearGradient id="linear-gradient" x1="110.5319" y1="-227.8358" x2="111.0611" y2="-227.8358" gradientTransform="translate(-412.7584 -853.1116) scale(3.7795 -3.7795)" gradientUnits="userSpaceOnUse"><stop offset="0" stop-color="#000"/><stop offset="1" stop-color="#000" stop-opacity="0"/></linearGradient></defs><path id="folder" class="cls-4" d="m0-.0056v12l4.1131,1.9355c.3105.1468.681.0135.8275-.2976.0393-.0834.0596-.1746.0594-.2668v-2.3711h6V.9944c-.004-.745-.4086-.9893-1-1H0Z"/><path id="folder_shadow" class="cls-2" d="m-.0179-.0056l4.0848,1.5879c.5625.2187.9331.7603.9331,1.3638v8.0482h6V.9944c-.004-.745-.4093-.9893-1.0016-1H-.0179Z"/><path id="flap_shadow" class="cls-3" d="m10,10.9944c.7057-.0798,1.0812-.3798,1-.9844v-5.0156c.6647-.0018.998-.3352,1-1V.9944c.0053-.6399-.3093-.9903-1-1H0v11h10Z"/><g id="Layer_69_copy"><path d="m8.4282,11.5c-2.4829,0-4.4282-1.3174-4.4282-3v-3.4062l1.707,1.707c.4009.4004,1.3262.8291,2.7212.8291,1.2241,0,2.3677-.5029,2.8647-1l1.707-1.707v3.5771c0,1.6543-2.0508,3-4.5718,3Z"/><path d="m8.5088,14.0166c-2.5283,0-4.5088-1.3252-4.5088-3.0166v-3.4141l1.707,1.707c.4873.4873,1.5425.9785,2.8018.9785,1.2471,0,2.2969-.4912,2.7842-.9785l1.707-1.707v3.4141c0,1.6914-1.9727,3.0166-4.4912,3.0166Z"/><path d="m8.5088,7.9336c-2.5283,0-4.5088-1.2891-4.5088-2.9336,0-1.626,2.0649-3,4.5088-3,2.4766,0,4.4912,1.3457,4.4912,3,0,1.6445-1.9727,2.9336-4.4912,2.9336Z"/><path class="cls-1" d="m4.9995,7.0077v.9923c0,1.0598,1.4961,2,3.4286,2s3.5718-.9402,3.5718-2v-1c-.6857.6857-2.0757,1.1298-3.5718,1.1298s-2.7429-.4364-3.4286-1.1221Z"/><path class="cls-1" d="m5,10v1c0,1.0598,1.5762,2.0163,3.5087,2.0163s3.4913-.9565,3.4913-2.0163v-1c-.6857.6857-1.9951,1.2717-3.4913,1.2717s-2.823-.586-3.5087-1.2717Z"/><path class="cls-1" d="m8.5087,3c1.8936,0,3.4913.9671,3.4913,2s-1.5977,1.9332-3.4913,1.9332-3.5087-.9003-3.5087-1.9332,1.6152-2,3.5087-2Z"/></g><path id="icon_shadow" class="cls-5" d="m5,4l2-1v10l-2-1V4Z"/><path id="flap" class="cls-4" d="m5,2.9456c.0005-.6031-.3694-1.1446-.9315-1.3632L0,0v11.994l4.1131,1.9355c.3105.1468.681.0135.8275-.2976.033-.0701.0446-.1472.0499-.2242l.0095-10.4621Z"/></svg>

<svg xmlns="http://www.w3.org/2000/svg" id="Layer_23_copy_4" viewBox="0 0 14 14"><defs><radialGradient id="radial-gradient" cx="152.711" cy="-176.424" r="1.587" fx="152.711" fy="-176.424" gradientTransform="matrix(3.43528 2.2902 1.25984 -1.88975 -298.338 -680.142)" gradientUnits="userSpaceOnUse"><stop offset="0"/><stop offset="1" stop-opacity="0"/></radialGradient><linearGradient id="linear-gradient" x1="110.532" x2="111.061" y1="-227.836" y2="-227.836" gradientTransform="matrix(3.7795 0 0 -3.7795 -412.758 -853.112)" gradientUnits="userSpaceOnUse"><stop offset="0"/><stop offset="1" stop-opacity="0"/></linearGradient><style>.cls-4{fill:#ff2020}</style></defs><path id="folder" d="M0-.006v12l4.113 1.936A.62.62 0 0 0 5 13.366v-2.372h6v-10c-.004-.745-.409-.989-1-1z" class="cls-4"/><path id="folder_shadow" d="m-.018-.006 4.085 1.588c.562.219.933.76.933 1.364v8.048h6v-10c-.004-.745-.41-.989-1.002-1z" opacity=".3" style="isolation:isolate"/><path id="flap_shadow" fill="url(#radial-gradient)" d="M10 10.994c.706-.08 1.081-.38 1-.984V4.994q.997-.002 1-1v-3c.005-.64-.31-.99-1-1H0v11z" opacity=".711" style="isolation:isolate"/><g id="Layer_69_copy"><path d="M8.509 14.017C5.98 14.017 4 12.69 4 11V5c0-1.626 2.065-3 4.509-3C10.985 2 13 3.346 13 5v6c0 1.691-1.973 3.017-4.491 3.017"/><path fill="#fff" d="M5 7.008V8c0 1.06 1.496 2 3.428 2S12 9.06 12 8V7c-.686.686-2.076 1.13-3.572 1.13S5.685 7.693 5 7.008M5 10v1c0 1.06 1.576 2.016 3.509 2.016S12 12.06 12 11v-1c-.686.686-1.995 1.272-3.491 1.272S5.686 10.686 5 10m3.509-7C10.402 3 12 3.967 12 5s-1.598 1.933-3.491 1.933S5 6.033 5 5s1.615-2 3.509-2"/></g><path id="icon_shadow" fill="url(#linear-gradient)" d="m5 4 2-1v10l-2-1z"/><path id="flap" d="M5 2.946c0-.603-.37-1.145-.931-1.364L0 0v11.994l4.113 1.936c.31.146.681.013.828-.298a.6.6 0 0 0 .05-.224z" class="cls-4"/></svg>
